images/54677407.svg

<?xml version="1.0" encoding="UTF-8"?>
<svg xmlns="http://www.w3.org/2000/svg" xmlns:xlink="http://www.w3.org/1999/xlink" width="300pt" height="300pt" viewBox="0 0 300 300" version="1.1">
<defs>
<g>
<symbol overflow="visible" id="glyph0-0">
<path style="stroke:none;" d="M 0.453125 1.59375 L 0.453125 -6.34375 L 4.953125 -6.34375 L 4.953125 1.59375 Z M 0.953125 1.09375 L 4.453125 1.09375 L 4.453125 -5.84375 L 0.953125 -5.84375 Z M 0.953125 1.09375 "/>
</symbol>
<symbol overflow="visible" id="glyph0-1">
<path style="stroke:none;" d="M 3.546875 -5.953125 C 2.898438 -5.953125 2.382812 -5.710938 2 -5.234375 C 1.625 -4.753906 1.4375 -4.101562 1.4375 -3.28125 C 1.4375 -2.445312 1.625 -1.789062 2 -1.3125 C 2.382812 -0.832031 2.898438 -0.59375 3.546875 -0.59375 C 4.191406 -0.59375 4.703125 -0.832031 5.078125 -1.3125 C 5.453125 -1.789062 5.640625 -2.445312 5.640625 -3.28125 C 5.640625 -4.101562 5.453125 -4.753906 5.078125 -5.234375 C 4.703125 -5.710938 4.191406 -5.953125 3.546875 -5.953125 Z M 3.546875 -6.6875 C 4.460938 -6.6875 5.195312 -6.375 5.75 -5.75 C 6.300781 -5.132812 6.578125 -4.3125 6.578125 -3.28125 C 6.578125 -2.238281 6.300781 -1.410156 5.75 -0.796875 C 5.195312 -0.179688 4.460938 0.125 3.546875 0.125 C 2.617188 0.125 1.878906 -0.179688 1.328125 -0.796875 C 0.773438 -1.410156 0.5 -2.238281 0.5 -3.28125 C 0.5 -4.3125 0.773438 -5.132812 1.328125 -5.75 C 1.878906 -6.375 2.617188 -6.6875 3.546875 -6.6875 Z M 3.546875 -6.6875 "/>
</symbol>
<symbol overflow="visible" id="glyph0-2">
<path style="stroke:none;" d="M 0.890625 -6.5625 L 1.765625 -6.5625 L 1.765625 -3.875 L 5 -3.875 L 5 -6.5625 L 5.890625 -6.5625 L 5.890625 0 L 5 0 L 5 -3.125 L 1.765625 -3.125 L 1.765625 0 L 0.890625 0 Z M 0.890625 -6.5625 "/>
</symbol>
</g>
</defs>
<g id="surface48085">
<rect x="0" y="0" width="300" height="300" style="fill:rgb(100%,100%,100%);fill-opacity:1;stroke:none;"/>
<path style="fill:none;stroke-width:1.2;stroke-linecap:butt;stroke-linejoin:miter;stroke:rgb(0%,0%,0%);stroke-opacity:1;stroke-miterlimit:10;" d="M 43.003906 174.183594 L 54.792969 156.417969 "/>
<path style="fill:none;stroke-width:1.2;stroke-linecap:butt;stroke-linejoin:miter;stroke:rgb(0%,0%,0%);stroke-opacity:1;stroke-miterlimit:10;" d="M 54.792969 156.417969 L 59.796875 135.6875 "/>
<path style="fill:none;stroke-width:1.2;stroke-linecap:butt;stroke-linejoin:miter;stroke:rgb(0%,0%,0%);stroke-opacity:1;stroke-miterlimit:10;" d="M 54.792969 156.417969 L 35.25 147.890625 "/>
<path style="fill:none;stroke-width:1.2;stroke-linecap:butt;stroke-linejoin:miter;stroke:rgb(100%,0%,0%);stroke-opacity:1;stroke-miterlimit:10;" d="M 70.242188 171.113281 L 62.519531 163.765625 "/>
<path style="fill:none;stroke-width:1.2;stroke-linecap:butt;stroke-linejoin:miter;stroke:rgb(0%,0%,0%);stroke-opacity:1;stroke-miterlimit:10;" d="M 62.519531 163.765625 L 54.792969 156.417969 "/>
<path style="fill:none;stroke-width:1.2;stroke-linecap:butt;stroke-linejoin:miter;stroke:rgb(0%,0%,0%);stroke-opacity:1;stroke-miterlimit:10;" d="M 59.796875 135.6875 L 80.246094 129.65625 "/>
<path style="fill:none;stroke-width:1.2;stroke-linecap:butt;stroke-linejoin:miter;stroke:rgb(0%,0%,0%);stroke-opacity:1;stroke-miterlimit:10;" d="M 63.261719 139.898438 L 79.621094 135.074219 "/>
<path style="fill:none;stroke-width:1.2;stroke-linecap:butt;stroke-linejoin:miter;stroke:rgb(0%,0%,0%);stroke-opacity:1;stroke-miterlimit:10;" d="M 80.246094 129.65625 L 95.695312 144.351562 "/>
<path style="fill:none;stroke-width:1.2;stroke-linecap:butt;stroke-linejoin:miter;stroke:rgb(0%,0%,0%);stroke-opacity:1;stroke-miterlimit:10;" d="M 95.695312 144.351562 L 90.695312 165.078125 "/>
<path style="fill:none;stroke-width:1.2;stroke-linecap:butt;stroke-linejoin:miter;stroke:rgb(0%,0%,0%);stroke-opacity:1;stroke-miterlimit:10;" d="M 100.074219 147.601562 L 96.070312 164.183594 "/>
<path style="fill:none;stroke-width:1.2;stroke-linecap:butt;stroke-linejoin:miter;stroke:rgb(0%,0%,0%);stroke-opacity:1;stroke-miterlimit:10;" d="M 116.148438 138.320312 L 95.695312 144.351562 "/>
<path style="fill:none;stroke-width:1.2;stroke-linecap:butt;stroke-linejoin:miter;stroke:rgb(0%,0%,0%);stroke-opacity:1;stroke-miterlimit:10;" d="M 90.695312 165.078125 L 80.46875 168.09375 "/>
<path style="fill:none;stroke-width:1.2;stroke-linecap:butt;stroke-linejoin:miter;stroke:rgb(100%,0%,0%);stroke-opacity:1;stroke-miterlimit:10;" d="M 80.46875 168.09375 L 70.242188 171.113281 "/>
<path style="fill:none;stroke-width:1.2;stroke-linecap:butt;stroke-linejoin:miter;stroke:rgb(0%,0%,0%);stroke-opacity:1;stroke-miterlimit:10;" d="M 90.695312 165.078125 L 106.144531 179.773438 "/>
<path style=" stroke:none;fill-rule:nonzero;fill:rgb(100%,100%,100%);fill-opacity:1;" d="M 66.242188 165.613281 L 74.242188 165.613281 L 74.242188 176.613281 L 66.242188 176.613281 Z M 66.242188 165.613281 "/>
<g style="fill:rgb(100%,0%,0%);fill-opacity:1;">
  <use xlink:href="#glyph0-1" x="66.242188" y="174.276367"/>
</g>
<path style="fill:none;stroke-width:1.2;stroke-linecap:butt;stroke-linejoin:miter;stroke:rgb(0%,0%,0%);stroke-opacity:1;stroke-miterlimit:10;" d="M 106.144531 179.773438 L 126.59375 173.742188 "/>
<path style="fill:none;stroke-width:1.2;stroke-linecap:butt;stroke-linejoin:miter;stroke:rgb(0%,0%,0%);stroke-opacity:1;stroke-miterlimit:10;" d="M 106.769531 174.359375 L 123.128906 169.535156 "/>
<path style="fill:none;stroke-width:1.2;stroke-linecap:butt;stroke-linejoin:miter;stroke:rgb(0%,0%,0%);stroke-opacity:1;stroke-miterlimit:10;" d="M 126.59375 173.742188 L 131.597656 153.015625 "/>
<path style="fill:none;stroke-width:1.2;stroke-linecap:butt;stroke-linejoin:miter;stroke:rgb(100%,0%,0%);stroke-opacity:1;stroke-miterlimit:10;" d="M 142.042969 188.4375 L 134.320312 181.089844 "/>
<path style="fill:none;stroke-width:1.2;stroke-linecap:butt;stroke-linejoin:miter;stroke:rgb(0%,0%,0%);stroke-opacity:1;stroke-miterlimit:10;" d="M 134.320312 181.089844 L 126.59375 173.742188 "/>
<path style="fill:none;stroke-width:1.2;stroke-linecap:butt;stroke-linejoin:miter;stroke:rgb(0%,0%,0%);stroke-opacity:1;stroke-miterlimit:10;" d="M 131.597656 153.015625 L 116.148438 138.320312 "/>
<path style="fill:none;stroke-width:1.2;stroke-linecap:butt;stroke-linejoin:miter;stroke:rgb(0%,0%,0%);stroke-opacity:1;stroke-miterlimit:10;" d="M 126.59375 155.179688 L 114.234375 143.425781 "/>
<path style="fill:none;stroke-width:1.2;stroke-linecap:butt;stroke-linejoin:miter;stroke:rgb(0%,0%,0%);stroke-opacity:1;stroke-miterlimit:10;" d="M 131.597656 153.015625 L 152.046875 146.984375 "/>
<path style="fill:none;stroke-width:1.2;stroke-linecap:butt;stroke-linejoin:miter;stroke:rgb(0%,0%,0%);stroke-opacity:1;stroke-miterlimit:10;" d="M 116.148438 138.320312 L 118.648438 127.957031 "/>
<path style="fill:none;stroke-width:1.2;stroke-linecap:butt;stroke-linejoin:miter;stroke:rgb(100%,0%,0%);stroke-opacity:1;stroke-miterlimit:10;" d="M 118.648438 127.957031 L 121.148438 117.59375 "/>
<path style="fill:none;stroke-width:1.2;stroke-linecap:butt;stroke-linejoin:miter;stroke:rgb(100%,0%,0%);stroke-opacity:1;stroke-miterlimit:10;" d="M 121.148438 117.59375 L 113.425781 110.246094 "/>
<path style="fill:none;stroke-width:1.2;stroke-linecap:butt;stroke-linejoin:miter;stroke:rgb(0%,0%,0%);stroke-opacity:1;stroke-miterlimit:10;" d="M 113.425781 110.246094 L 105.699219 102.898438 "/>
<path style=" stroke:none;fill-rule:nonzero;fill:rgb(100%,100%,100%);fill-opacity:1;" d="M 117.148438 112.09375 L 125.148438 112.09375 L 125.148438 123.09375 L 117.148438 123.09375 Z M 117.148438 112.09375 "/>
<g style="fill:rgb(100%,0%,0%);fill-opacity:1;">
  <use xlink:href="#glyph0-1" x="117.148438" y="120.756836"/>
</g>
<path style="fill:none;stroke-width:1.2;stroke-linecap:butt;stroke-linejoin:miter;stroke:rgb(0%,0%,0%);stroke-opacity:1;stroke-miterlimit:10;" d="M 152.046875 146.984375 L 167.496094 161.679688 "/>
<path style="fill:none;stroke-width:1.2;stroke-linecap:butt;stroke-linejoin:miter;stroke:rgb(0%,0%,0%);stroke-opacity:1;stroke-miterlimit:10;" d="M 150.132812 152.089844 L 162.492188 163.84375 "/>
<path style="fill:none;stroke-width:1.2;stroke-linecap:butt;stroke-linejoin:miter;stroke:rgb(0%,0%,0%);stroke-opacity:1;stroke-miterlimit:10;" d="M 152.046875 146.984375 L 154.546875 136.621094 "/>
<path style="fill:none;stroke-width:1.2;stroke-linecap:butt;stroke-linejoin:miter;stroke:rgb(100%,0%,0%);stroke-opacity:1;stroke-miterlimit:10;" d="M 154.546875 136.621094 L 157.050781 126.257812 "/>
<path style="fill:none;stroke-width:1.2;stroke-linecap:butt;stroke-linejoin:miter;stroke:rgb(0%,0%,0%);stroke-opacity:1;stroke-miterlimit:10;" d="M 167.496094 161.679688 L 162.496094 182.40625 "/>
<path style="fill:none;stroke-width:1.2;stroke-linecap:butt;stroke-linejoin:miter;stroke:rgb(0%,0%,0%);stroke-opacity:1;stroke-miterlimit:10;" d="M 167.496094 161.679688 L 187.949219 155.648438 "/>
<path style="fill:none;stroke-width:1.2;stroke-linecap:butt;stroke-linejoin:miter;stroke:rgb(0%,0%,0%);stroke-opacity:1;stroke-miterlimit:10;" d="M 160.765625 184.222656 L 168.492188 191.570312 "/>
<path style="fill:none;stroke-width:1.2;stroke-linecap:butt;stroke-linejoin:miter;stroke:rgb(100%,0%,0%);stroke-opacity:1;stroke-miterlimit:10;" d="M 168.492188 191.570312 L 176.214844 198.917969 "/>
<path style="fill:none;stroke-width:1.2;stroke-linecap:butt;stroke-linejoin:miter;stroke:rgb(0%,0%,0%);stroke-opacity:1;stroke-miterlimit:10;" d="M 164.222656 180.589844 L 171.949219 187.9375 "/>
<path style="fill:none;stroke-width:1.2;stroke-linecap:butt;stroke-linejoin:miter;stroke:rgb(100%,0%,0%);stroke-opacity:1;stroke-miterlimit:10;" d="M 171.949219 187.9375 L 179.671875 195.285156 "/>
<path style="fill:none;stroke-width:1.2;stroke-linecap:butt;stroke-linejoin:miter;stroke:rgb(0%,0%,0%);stroke-opacity:1;stroke-miterlimit:10;" d="M 162.496094 182.40625 L 152.269531 185.421875 "/>
<path style="fill:none;stroke-width:1.2;stroke-linecap:butt;stroke-linejoin:miter;stroke:rgb(100%,0%,0%);stroke-opacity:1;stroke-miterlimit:10;" d="M 152.269531 185.421875 L 142.042969 188.4375 "/>
<path style=" stroke:none;fill-rule:nonzero;fill:rgb(100%,100%,100%);fill-opacity:1;" d="M 173.945312 191.601562 L 181.945312 191.601562 L 181.945312 202.601562 L 173.945312 202.601562 Z M 173.945312 191.601562 "/>
<g style="fill:rgb(100%,0%,0%);fill-opacity:1;">
  <use xlink:href="#glyph0-1" x="173.945312" y="200.264648"/>
</g>
<path style=" stroke:none;fill-rule:nonzero;fill:rgb(100%,100%,100%);fill-opacity:1;" d="M 138.042969 182.9375 L 146.042969 182.9375 L 146.042969 193.9375 L 138.042969 193.9375 Z M 138.042969 182.9375 "/>
<g style="fill:rgb(100%,0%,0%);fill-opacity:1;">
  <use xlink:href="#glyph0-1" x="138.042969" y="191.600586"/>
</g>
<path style="fill:none;stroke-width:1.2;stroke-linecap:butt;stroke-linejoin:miter;stroke:rgb(0%,0%,0%);stroke-opacity:1;stroke-miterlimit:10;" d="M 187.949219 155.648438 L 203.398438 170.34375 "/>
<path style="fill:none;stroke-width:1.2;stroke-linecap:butt;stroke-linejoin:miter;stroke:rgb(0%,0%,0%);stroke-opacity:1;stroke-miterlimit:10;" d="M 192.949219 153.480469 L 205.308594 165.238281 "/>
<path style="fill:none;stroke-width:1.2;stroke-linecap:butt;stroke-linejoin:miter;stroke:rgb(0%,0%,0%);stroke-opacity:1;stroke-miterlimit:10;" d="M 192.949219 134.921875 L 187.949219 155.648438 "/>
<path style="fill:none;stroke-width:1.2;stroke-linecap:butt;stroke-linejoin:miter;stroke:rgb(0%,0%,0%);stroke-opacity:1;stroke-miterlimit:10;" d="M 203.398438 170.34375 L 223.847656 164.3125 "/>
<path style="fill:none;stroke-width:1.2;stroke-linecap:butt;stroke-linejoin:miter;stroke:rgb(0%,0%,0%);stroke-opacity:1;stroke-miterlimit:10;" d="M 223.847656 164.3125 L 228.851562 143.582031 "/>
<path style="fill:none;stroke-width:1.2;stroke-linecap:butt;stroke-linejoin:miter;stroke:rgb(0%,0%,0%);stroke-opacity:1;stroke-miterlimit:10;" d="M 219.472656 161.0625 L 223.472656 144.480469 "/>
<path style="fill:none;stroke-width:1.2;stroke-linecap:butt;stroke-linejoin:miter;stroke:rgb(0%,0%,0%);stroke-opacity:1;stroke-miterlimit:10;" d="M 228.851562 143.582031 L 213.398438 128.886719 "/>
<path style="fill:none;stroke-width:1.2;stroke-linecap:butt;stroke-linejoin:miter;stroke:rgb(0%,0%,0%);stroke-opacity:1;stroke-miterlimit:10;" d="M 228.851562 143.582031 L 239.074219 140.566406 "/>
<path style="fill:none;stroke-width:1.2;stroke-linecap:butt;stroke-linejoin:miter;stroke:rgb(100%,0%,0%);stroke-opacity:1;stroke-miterlimit:10;" d="M 239.074219 140.566406 L 249.300781 137.550781 "/>
<path style="fill:none;stroke-width:1.2;stroke-linecap:butt;stroke-linejoin:miter;stroke:rgb(0%,0%,0%);stroke-opacity:1;stroke-miterlimit:10;" d="M 213.398438 128.886719 L 192.949219 134.921875 "/>
<path style="fill:none;stroke-width:1.2;stroke-linecap:butt;stroke-linejoin:miter;stroke:rgb(0%,0%,0%);stroke-opacity:1;stroke-miterlimit:10;" d="M 212.773438 134.304688 L 196.414062 139.128906 "/>
<path style="fill:none;stroke-width:1.2;stroke-linecap:butt;stroke-linejoin:miter;stroke:rgb(100%,0%,0%);stroke-opacity:1;stroke-miterlimit:10;" d="M 249.300781 137.550781 L 257.023438 144.898438 "/>
<path style="fill:none;stroke-width:1.2;stroke-linecap:butt;stroke-linejoin:miter;stroke:rgb(0%,0%,0%);stroke-opacity:1;stroke-miterlimit:10;" d="M 257.023438 144.898438 L 264.75 152.246094 "/>
<path style=" stroke:none;fill-rule:nonzero;fill:rgb(100%,100%,100%);fill-opacity:1;" d="M 245.300781 132.050781 L 253.300781 132.050781 L 253.300781 143.050781 L 245.300781 143.050781 Z M 245.300781 132.050781 "/>
<g style="fill:rgb(100%,0%,0%);fill-opacity:1;">
  <use xlink:href="#glyph0-1" x="245.300781" y="140.713867"/>
</g>
<path style=" stroke:none;fill-rule:nonzero;fill:rgb(100%,100%,100%);fill-opacity:1;" d="M 150.050781 120.757812 L 165.050781 120.757812 L 165.050781 131.757812 L 150.050781 131.757812 Z M 150.050781 120.757812 "/>
<g style="fill:rgb(100%,0%,0%);fill-opacity:1;">
  <use xlink:href="#glyph0-1" x="150.050781" y="129.420898"/>
  <use xlink:href="#glyph0-2" x="157.392578" y="129.420898"/>
</g>
</g>
</svg>

<svg xmlns="http://www.w3.org/2000/svg" xmlns:xlink="http://www.w3.org/1999/xlink" width="300pt" height="300pt" viewBox="0 0 300 300"><defs><symbol overflow="visible"><path d="M.453 1.594v-7.938h4.5v7.938zm.5-.5h3.5v-6.938h-3.5zm0 0"/></symbol><symbol overflow="visible" id="a"><path d="M3.547-5.953c-.65 0-1.164.242-1.547.72-.375.48-.563 1.13-.563 1.952 0 .835.188 1.49.563 1.967.383.48.898.72 1.547.72.644 0 1.156-.24 1.53-.72.376-.476.564-1.132.564-1.968 0-.822-.187-1.474-.562-1.954-.375-.477-.887-.72-1.53-.72zm0-.734c.914 0 1.648.312 2.203.937.55.617.828 1.438.828 2.47 0 1.042-.277 1.87-.828 2.483-.555.617-1.29.922-2.203.922-.93 0-1.668-.305-2.22-.922C.774-1.41.5-2.237.5-3.28c0-1.033.273-1.853.828-2.47.55-.625 1.29-.938 2.22-.938zm0 0"/></symbol><symbol overflow="visible" id="b"><path d="M.89-6.563h.876v2.688H5v-2.688h.89V0H5v-3.125H1.766V0H.89zm0 0"/></symbol></defs><g><path fill="#fff" d="M0 0h300v300H0z"/><path d="M43.004 174.184l11.79-17.766M54.793 156.418l5.004-20.73M54.793 156.418L35.25 147.89" stroke-width="1.2" stroke="#000" stroke-miterlimit="10" fill="none"/><path d="M70.242 171.113l-7.722-7.347" stroke-width="1.2" stroke="#f00" stroke-miterlimit="10" fill="none"/><path d="M62.52 163.766l-7.727-7.348M59.797 135.688l20.45-6.032M63.262 139.898l16.36-4.824M80.246 129.656l15.45 14.696M95.695 144.352l-5 20.726M100.074 147.602l-4.004 16.582M116.148 138.32l-20.453 6.032M90.695 165.078l-10.226 3.016" stroke-width="1.2" stroke="#000" stroke-miterlimit="10" fill="none"/><path d="M80.47 168.094l-10.228 3.02" stroke-width="1.2" stroke="#f00" stroke-miterlimit="10" fill="none"/><path d="M90.695 165.078l15.45 14.695" stroke-width="1.2" stroke="#000" stroke-miterlimit="10" fill="none"/><path d="M66.242 165.613h8v11h-8zm0 0" fill="#fff"/><use xlink:href="#a" x="66.242" y="174.276" fill="#f00"/><path d="M106.145 179.773l20.45-6.03M106.77 174.36l16.36-4.825M126.594 173.742l5.004-20.726" stroke-width="1.2" stroke="#000" stroke-miterlimit="10" fill="none"/><path d="M142.043 188.438l-7.723-7.348" stroke-width="1.2" stroke="#f00" stroke-miterlimit="10" fill="none"/><path d="M134.32 181.09l-7.726-7.348M131.598 153.016l-15.45-14.696M126.594 155.18l-12.36-11.754M131.598 153.016l20.45-6.032M116.148 138.32l2.5-10.363" stroke-width="1.2" stroke="#000" stroke-miterlimit="10" fill="none"/><path d="M118.648 127.957l2.5-10.363M121.148 117.594l-7.722-7.348" stroke-width="1.2" stroke="#f00" stroke-miterlimit="10" fill="none"/><path d="M113.426 110.246l-7.727-7.348" stroke-width="1.2" stroke="#000" stroke-miterlimit="10" fill="none"/><path d="M117.148 112.094h8v11h-8zm0 0" fill="#fff"/><use xlink:href="#a" x="117.148" y="120.757" fill="#f00"/><path d="M152.047 146.984l15.45 14.696M150.133 152.09l12.36 11.754M152.047 146.984l2.5-10.363" stroke-width="1.2" stroke="#000" stroke-miterlimit="10" fill="none"/><path d="M154.547 136.62l2.504-10.362" stroke-width="1.2" stroke="#f00" stroke-miterlimit="10" fill="none"/><path d="M167.496 161.68l-5 20.726M167.496 161.68l20.453-6.032M160.766 184.223l7.726 7.347" stroke-width="1.2" stroke="#000" stroke-miterlimit="10" fill="none"/><path d="M168.492 191.57l7.723 7.348" stroke-width="1.2" stroke="#f00" stroke-miterlimit="10" fill="none"/><path d="M164.223 180.59l7.726 7.347" stroke-width="1.2" stroke="#000" stroke-miterlimit="10" fill="none"/><path d="M171.95 187.938l7.722 7.347" stroke-width="1.2" stroke="#f00" stroke-miterlimit="10" fill="none"/><path d="M162.496 182.406l-10.226 3.016" stroke-width="1.2" stroke="#000" stroke-miterlimit="10" fill="none"/><path d="M152.27 185.422l-10.227 3.016" stroke-width="1.2" stroke="#f00" stroke-miterlimit="10" fill="none"/><path d="M173.945 191.602h8v11h-8zm0 0" fill="#fff"/><use xlink:href="#a" x="173.945" y="200.265" fill="#f00"/><path d="M138.043 182.938h8v11h-8zm0 0" fill="#fff"/><use xlink:href="#a" x="138.043" y="191.601" fill="#f00"/><path d="M187.95 155.648l15.448 14.696M192.95 153.48l12.36 11.758M192.95 134.922l-5 20.726M203.398 170.344l20.45-6.03M223.848 164.313l5.004-20.73M219.473 161.063l4-16.583M228.852 143.582l-15.454-14.695M228.852 143.582l10.222-3.016" stroke-width="1.2" stroke="#000" stroke-miterlimit="10" fill="none"/><path d="M239.074 140.566l10.227-3.015" stroke-width="1.2" stroke="#f00" stroke-miterlimit="10" fill="none"/><path d="M213.398 128.887l-20.45 6.035M212.773 134.305l-16.36 4.824" stroke-width="1.2" stroke="#000" stroke-miterlimit="10" fill="none"/><path d="M249.3 137.55l7.723 7.348" stroke-width="1.2" stroke="#f00" stroke-miterlimit="10" fill="none"/><path d="M257.023 144.898l7.727 7.348" stroke-width="1.2" stroke="#000" stroke-miterlimit="10" fill="none"/><path d="M245.3 132.05h8v11h-8zm0 0" fill="#fff"/><use xlink:href="#a" x="245.301" y="140.714" fill="#f00"/><path d="M150.05 120.758h15v11h-15zm0 0" fill="#fff"/><g fill="#f00"><use xlink:href="#a" x="150.051" y="129.421"/><use xlink:href="#b" x="157.393" y="129.421"/></g></g></svg>
